icons/mail-branch-alt.svg

<svg xmlns="http://www.w3.org/2000/svg" viewBox="0 0 24 24" fill="currentColor">
  <path d="M5.04736 7c0-1.28579.96422-2.25 2.25-2.25h9.40004c1.2857 0 2.25.96421 2.25 2.25v6c0 .0156.0004.0312.0014.0468.0713 1.1397-.955 2.2032-2.1514 2.2032H7.29736c-1.28578 0-2.25-.9642-2.25-2.25V7Zm11.75004 9.75h-3.95v2.5h4.25c.4142 0 .75.3358.75.75s-.3358.75-.75.75H7.09741c-.41421 0-.75-.3358-.75-.75s.33579-.75.75-.75h4.24999v-2.5H7.29736c-2.11421 0-3.75-1.6358-3.75-3.75V7c0-2.11421 1.63579-3.75 3.75-3.75h9.40004c2.1142 0 3.75 1.63579 3.75 3.75v5.9781c.113 2.0493-1.6545 3.7719-3.65 3.7719ZM7.23279 6.72925c-.37048-.18525-.82099-.03508-1.00623.33541-.18524.37048-.03507.82098.33541 1.00623L10.562 10.0709c.0131.0066.0264.0127.0399.0185.8887.3809 1.9023.3809 2.7909 0 .0135-.0058.0268-.0119.04-.0185l4-2.00001c.3705-.18525.5206-.63575.3354-1.00623-.1852-.37049-.6357-.52066-1.0062-.33541l-3.9788 1.98936c-.5006.20861-1.071.20861-1.5717 0L7.23279 6.72925Z"/>
</svg>

<svg width="24" height="24" viewBox="0 0 24 24" fill="none" xmlns="http://www.w3.org/2000/svg">
<path fill-rule="evenodd" clip-rule="evenodd" d="M5.04736 7C5.04736 5.71421 6.01158 4.75 7.29736 4.75H16.6974C17.9831 4.75 18.9474 5.71421 18.9474 7V13C18.9474 13.0156 18.9478 13.0312 18.9488 13.0468C19.0201 14.1865 17.9938 15.25 16.7974 15.25H12.0974H7.29736C6.01158 15.25 5.04736 14.2858 5.04736 13V7ZM16.7974 16.75H12.8474V19.25H17.0974C17.5116 19.25 17.8474 19.5858 17.8474 20C17.8474 20.4142 17.5116 20.75 17.0974 20.75H12.0974H7.09741C6.6832 20.75 6.34741 20.4142 6.34741 20C6.34741 19.5858 6.6832 19.25 7.09741 19.25H11.3474V16.75H7.29736C5.18315 16.75 3.54736 15.1142 3.54736 13V7C3.54736 4.88579 5.18315 3.25 7.29736 3.25H16.6974C18.8116 3.25 20.4474 4.88579 20.4474 7V12.9781C20.5604 15.0274 18.7929 16.75 16.7974 16.75ZM7.23279 6.72925C6.86231 6.544 6.4118 6.69417 6.22656 7.06466C6.04132 7.43514 6.19149 7.88564 6.56197 8.07089L10.562 10.0709C10.5751 10.0775 10.5884 10.0836 10.6019 10.0894C11.4906 10.4703 12.5042 10.4703 13.3928 10.0894C13.4063 10.0836 13.4196 10.0775 13.4328 10.0709L17.4328 8.07089C17.8033 7.88564 17.9534 7.43514 17.7682 7.06466C17.583 6.69417 17.1325 6.544 16.762 6.72925L12.7832 8.71861C12.2826 8.92722 11.7122 8.92722 11.2115 8.71861L7.23279 6.72925Z" fill="black"/>
</svg>
